X: 1
T: Bamford -- Hornpipe
B: Ryan's Mammoth Collection of Fiddle Tunes
R: hornpipe
M: 2/4
L: 1/16
Z: Contributed 20000510142618 by Bob Safranek rjs:gsp.org
K: Bb
(ude) | fbdf edcB | Ac.F2 (F3E) | DF.B2 .d2uBd | fede c2(de) |
        fbdf edcB | Ac.F2 (F3E) | DFBd   fecA  | B2d2B2 :|
|: (uAB) | cFAc eFAc | BDFB dFBd | fBdf bBdf | efed cBAB |
           cFAc eFAc | BDFB dFBd | fgfe decd | Bbfd B2 :|
